X: 66
T: Hundred Pipers
B: begged borrowed and stolen
B: ralph
B: steve tunes
M:6/8
L:1/8
R: jig
Q: 3/8=100
K:Gmajor
V:1 
G/A|:"G"B2 D D>ED|"C"E2 G G2 e|"G"d2 B B>AG|"D"A2 A A>Bc|
"G" B2 D D>ED|"C"E2 G G2 e|"G"d2 B "D"ABA|"G"G3 G3/2 G/A:|
 |:"G"d2 d d>Bd|"C"e2 g g2 e|"G"d2 B B>AG|"D"A2 A ABc|
"G" d2 d d>ef|"C"g2 g g>fe|"G"d2 B "D"ABA|"G"G3 G3/2:|
% abcbook-tune_id 62828a3a5f77fe7082dd41b8


% abcbook-boost 0
% abcbook-tablature 
% abcbook-transpose 
% abcbook-lastupdated 1665961128571
% abcbook-soundfonts 
% abcbook-repeats 3
% abc-sessionorg_id 1232
% abc-sessionorg_setting 0
% abc-sessionorg_setting_id 24519
% abc-boost 0

